assets/icons/qvision/add_moderator.svg

<svg xmlns="http://www.w3.org/2000/svg" height="24" viewBox="0 0 24 24" width="24"><path d="M0 0h24v24H0z" fill="none"/><path d="M0 0h24v24H0z" fill="none"/><path d="M13.22 22.61c-.4.15-.8.29-1.22.39-5.16-1.26-9-6.45-9-12V5l9-4 9 4v6c0 .9-.11 1.78-.3 2.65-.81-.41-1.73-.65-2.7-.65-3.31 0-6 2.69-6 6 0 1.36.46 2.61 1.22 3.61zM19 20v2.99s-1.99.01-2 0V20h-3v-2h3v-3h2v3h3v2h-3z"/></svg>

<svg width="24" height="24" viewBox="0 0 24 24" fill="none" xmlns="http://www.w3.org/2000/svg">
<g clip-path="url(#clip0_147_6347)">
<path d="M13.22 22.61C12.82 22.76 12.42 22.9 12 23C6.84 21.74 3 16.55 3 11V5L12 1L21 5V11C21 11.9 20.89 12.78 20.7 13.65C19.89 13.24 18.97 13 18 13C14.69 13 12 15.69 12 19C12 20.36 12.46 21.61 13.22 22.61ZM19 20V22.99C19 22.99 17.01 23 17 22.99V20H14V18H17V15H19V18H22V20H19Z" fill="#323232"/>
</g>
<defs>
<clipPath id="clip0_147_6347">
<rect width="24" height="24" fill="white"/>
</clipPath>
</defs>
</svg>
